dist/intermediate-svg/settings.svg

<?xml version="1.0" encoding="utf-8"?><svg width="12" height="12" fill="none" xmlns="http://www.w3.org/2000/svg" viewBox="0 0 12 12"><path d="M0.902803 2.91117L0.0501573 1.55696C-0.0501542 1.30618 -4.54406e-06 1.05541 0.200618 0.854782L0.802494 0.252915C0.902805 0.152603 1.10343 0.0522912 1.25389 0.0522912C1.3542 0.0522912 1.40436 0.0522904 1.45451 0.102446L2.85888 0.955094C2.95919 1.05541 3.05951 1.15572 3.10966 1.30618L3.46074 2.40961C3.46074 2.45977 3.5109 2.50992 3.56106 2.56008L4.51402 3.51304C4.51402 3.66351 4.51402 3.81397 4.56417 3.96444L3.66136 4.86724L2.45763 3.6635C2.40747 3.61335 2.35732 3.61335 2.30717 3.56319L1.20373 3.2121C1.10342 3.11179 1.00311 3.06163 0.902803 2.91117ZM9.52959 7.47534C9.47943 7.47534 9.47943 7.47534 9.42927 7.47534C9.22865 7.5255 8.97788 7.5255 8.77725 7.5255C8.57663 7.5255 8.376 7.5255 8.17538 7.47534L6.72087 8.92986L9.62991 11.8389C9.83053 12.0395 10.1315 12.0395 10.3321 11.8389L11.7364 10.4345C11.9371 10.2339 11.9371 9.93297 11.7364 9.73235L9.52959 7.47534ZM9.27881 6.47223C10.3822 6.32176 11.3352 5.51927 11.7364 4.51615C11.9371 4.0146 12.0374 3.56319 11.9872 3.06164C11.9872 2.86101 11.7364 2.7607 11.586 2.91117L10.3822 4.11491C10.3321 4.16506 10.2318 4.21522 10.1315 4.16506L8.42616 3.76382C8.32585 3.76382 8.27569 3.66351 8.22554 3.56319L7.8243 1.8579C7.8243 1.75759 7.8243 1.70743 7.87446 1.60712L9.07819 0.403382C9.22866 0.252915 9.12834 0.00213623 8.92772 0.00213623C8.47631 0.00213623 8.02492 0.052292 7.52336 0.252915C6.52025 0.704317 5.71776 1.60712 5.56729 2.71055C5.46698 3.26226 5.51712 3.76382 5.66759 4.21522L0.300936 9.58188C0.100313 9.78251 0.100313 10.0834 0.300936 10.2841L1.70529 11.6884C1.90591 11.889 2.20685 11.889 2.40747 11.6884L7.8243 6.2716C8.2757 6.52238 8.77725 6.57254 9.27881 6.47223Z" fill="#0094FF"/></svg>

<?xml version="1.0" encoding="utf-8"?><svg width="12" height="12" fill="none" xmlns="http://www.w3.org/2000/svg" viewBox="0 0 12 12"><path d="M.903 2.911L.05 1.557A.621.621 0 01.2.855L.803.253c.1-.1.301-.2.452-.2.1 0 .15 0 .2.05L2.86.954c.1.1.2.2.25.351l.352 1.104c0 .05.05.1.1.15l.953.953c0 .15 0 .301.05.451l-.903.903-1.203-1.204c-.05-.05-.1-.05-.15-.1l-1.104-.35c-.1-.101-.2-.151-.301-.302zM9.53 7.475h-.1c-.201.05-.452.05-.653.05-.2 0-.401 0-.602-.05L6.721 8.93l2.909 2.909c.2.2.502.2.702 0l1.404-1.405c.201-.2.201-.501 0-.702L9.53 7.475zm-.251-1.003c1.103-.15 2.056-.953 2.457-1.956.201-.501.301-.953.251-1.454 0-.201-.25-.301-.401-.15l-1.204 1.203c-.05.05-.15.1-.25.05l-1.706-.401c-.1 0-.15-.1-.2-.2l-.402-1.706c0-.1 0-.15.05-.25L9.078.402c.15-.15.05-.4-.15-.4-.452 0-.903.05-1.405.25C6.52.704 5.718 1.607 5.567 2.71c-.1.551-.05 1.053.1 1.504L.302 9.582c-.2.2-.2.501 0 .702l1.404 1.404c.2.201.502.201.702 0l5.417-5.416c.452.25.953.3 1.455.2z" fill="#0094FF"/></svg>
